public/static/icons/network/ton.svg

<svg fill="none" height="56" viewBox="0 0 56 56" width="56" xmlns="http://www.w3.org/2000/svg"><path d="m28 56c15.464 0 28-12.536 28-28s-12.536-28-28-28-28 12.536-28 28 12.536 28 28 28z" fill="#0098ea"/><path d="m37.5603 15.6277h-19.1217c-3.5158 0-5.7442 3.7925-3.9754 6.8584l11.8012 20.4548c.7701 1.3356 2.7 1.3356 3.4701 0l11.8036-20.4548c1.7664-3.061-.462-6.8584-3.9754-6.8584zm-11.3055 21.1791-2.5701-4.9741-6.2014-11.0913c-.4091-.7099.0962-1.6196.9529-1.6196h7.8162v17.6874zm12.256-16.0678-6.199 11.0961-2.5701 4.9717v-17.6874h7.8162c.8567 0 1.362.9097.9529 1.6196z" fill="#fff"/></svg>

<svg width="56" height="56" viewBox="0 0 56 56" fill="none" xmlns="http://www.w3.org/2000/svg">
<path d="M28 56C43.464 56 56 43.464 56 28C56 12.536 43.464 0 28 0C12.536 0 0 12.536 0 28C0 43.464 12.536 56 28 56Z" fill="#0098EA"/>
<path d="M37.5603 15.6277H18.4386C14.9228 15.6277 12.6944 19.4202 14.4632 22.4861L26.2644 42.9409C27.0345 44.2765 28.9644 44.2765 29.7345 42.9409L41.5381 22.4861C43.3045 19.4251 41.0761 15.6277 37.5627 15.6277H37.5603ZM26.2548 36.8068L23.6847 31.8327L17.4833 20.7414C17.0742 20.0315 17.5795 19.1218 18.4362 19.1218H26.2524V36.8092L26.2548 36.8068ZM38.5108 20.739L32.3118 31.8351L29.7417 36.8068V19.1194H37.5579C38.4146 19.1194 38.9199 20.0291 38.5108 20.739Z" fill="white"/>
</svg>
